dist/assets/image/iPhone.svg

<svg width="89" height="89" viewBox="0 0 89 89" fill="none" xmlns="http://www.w3.org/2000/svg">
<path fill-rule="evenodd" clip-rule="evenodd" d="M25.9583 3.70834H63.0417C67.1378 3.70834 70.4583 7.0289 70.4583 11.125V77.875C70.4583 81.9711 67.1378 85.2917 63.0417 85.2917H25.9583C21.8622 85.2917 18.5417 81.9711 18.5417 77.875V11.125C18.5417 7.0289 21.8622 3.70834 25.9583 3.70834ZM37.0833 11.125H25.9583V77.875H63.0417V11.125H51.9167C51.9167 13.1731 50.2564 14.8333 48.2083 14.8333H40.7917C38.7436 14.8333 37.0833 13.1731 37.0833 11.125Z" fill="url(#paint0_linear)"/>
<defs>
<linearGradient id="paint0_linear" x1="69.5417" y1="35.9763" x2="17.8736" y2="36.9645" gradientUnits="userSpaceOnUse">
<stop stop-color="#FB8180"/>
<stop offset="1" stop-color="#FDB86D"/>
</linearGradient>
</defs>
</svg>

<svg xmlns="http://www.w3.org/2000/svg" width="89" height="89" fill="none"><path fill-rule="evenodd" d="M25.958 3.708h37.083a7.42 7.42 0 0 1 7.417 7.417v66.75a7.42 7.42 0 0 1-7.417 7.417H25.958a7.42 7.42 0 0 1-7.417-7.417v-66.75a7.42 7.42 0 0 1 7.417-7.417zm11.125 7.417H25.958v66.75h37.083v-66.75H51.917a3.71 3.71 0 0 1-3.708 3.708h-7.417a3.71 3.71 0 0 1-3.708-3.708z" fill="url(#A)"/><defs><linearGradient id="A" x1="69.542" y1="35.976" x2="17.874" y2="36.965" gradientUnits="userSpaceOnUse"><stop stop-color="#fb8180"/><stop offset="1" stop-color="#fdb86d"/></linearGradient></defs></svg>
